flaticon/interaction/folder-13.svg

<svg xmlns="http://www.w3.org/2000/svg" width="32" height="32" viewBox="0 0 24 24">
    <path d="M 13.601562 22.601562 L 23.199219 22.601562 L 23.199219 13 L 13.601562 13 Z M 14.398438 13.800781 L 22.398438 13.800781 L 22.398438 21.800781 L 18.800781 21.800781 L 18.800781 16.765625 L 20.515625 18.484375 L 21.082031 17.917969 L 18.398438 15.234375 L 15.71875 17.917969 L 16.28125 18.484375 L 18 16.765625 L 18 21.800781 L 14.398438 21.800781 Z M 14.398438 13.800781"/>
    <path d="M 10.609375 4.199219 L 8.761719 1.621094 L 8.605469 1.398438 L 0 1.398438 L 0 22.601562 L 11.601562 22.601562 L 11.601562 21.800781 L 0.800781 21.800781 L 0.800781 2.199219 L 8.195312 2.199219 L 10.195312 5 L 10.199219 5 L 12.074219 7.621094 C 12.152344 7.730469 12.273438 7.789062 12.398438 7.789062 L 12.398438 7.800781 L 23.199219 7.800781 L 23.199219 11.800781 L 24 11.800781 L 24 4.199219 Z M 12.613281 7 L 11.183594 5 L 23.199219 5 L 23.199219 7 Z M 12.613281 7"/>
</svg>

<svg xmlns="http://www.w3.org/2000/svg" width="32" height="32" viewBox="0 0 24 24">
    <path d="M13.602 22.602h9.597V13h-9.597zm.796-8.801h8v8h-3.597v-5.035l1.715 1.718.566-.566-2.684-2.684-2.68 2.684.563.566L18 16.766V21.8h-3.602zm0 0"/>
    <path d="M10.61 4.2L8.761 1.62l-.157-.223H0v21.204h11.602V21.8H.8V2.199h7.394l2 2.801h.004l1.875 2.621c.078.11.2.168.324.168v.012H23.2v4H24V4.199zM12.612 7l-1.43-2H23.2v2zm0 0"/>
</svg>
